X:1
T:[ID 1-9a]
T:[ID 1-9a]
T:Bezeichnung standardisiert: Tantz Dantz
T:Urheber unbekannt Datum in der hier transkribierten schriftlichen Quelle: vermutlich vor 1767
C:Urheber unbekannt
C:Datum in der hier transkribierten schriftlichen Quelle: vermutlich vor 1767
L:1/8
M:4/4
K:D
V:1 treble 
V:1
 Bc | d3 e d2 e2 | fefg f2 e2 | f^g a2 Ta2 g2 | a6 :: x2 fg a2 fg a2 | bagf gfed | e2 fg Te3 d/c/ | %8
 d4 x2 :| %9

